svg/200/rounded/table_rows-fill.svg

<svg xmlns="http://www.w3.org/2000/svg" width="48" height="48" viewBox="0 -960 960 960"><path d="M187.692-160q-11.769 0-19.731-7.961Q160-175.923 160-187.692v-134.615q0-11.77 7.961-19.731Q175.923-350 187.692-350h584.616q11.769 0 19.731 7.962Q800-334.077 800-322.307v134.615q0 11.769-7.961 19.731Q784.077-160 772.308-160H187.692Zm0-220.769q-11.769 0-19.731-8.337Q160-397.442 160-408.462v-143.076q0-11.02 7.961-19.356 7.962-8.337 19.731-8.337h584.616q11.769 0 19.731 8.337Q800-562.558 800-551.538v143.076q0 11.02-7.961 19.356-7.962 8.337-19.731 8.337H187.692Zm0-229.231q-11.769 0-19.731-7.962Q160-625.923 160-637.693v-134.615q0-11.769 7.961-19.731Q175.923-800 187.692-800h584.616q11.769 0 19.731 7.961Q800-784.077 800-772.308v134.615q0 11.77-7.961 19.731Q784.077-610 772.308-610H187.692Z"/></svg>

<svg xmlns="http://www.w3.org/2000/svg" width="48" height="48" viewBox="0 -960 960 960"><path d="M187.69-160q-11.77 0-19.73-7.96-7.96-7.96-7.96-19.73v-134.62q0-11.77 7.96-19.73 7.96-7.96 19.73-7.96h584.62q11.77 0 19.73 7.96 7.96 7.96 7.96 19.73v134.62q0 11.77-7.96 19.73-7.96 7.96-19.73 7.96H187.69Zm0-220.77q-11.77 0-19.73-8.34-7.96-8.33-7.96-19.35v-143.08q0-11.02 7.96-19.35 7.96-8.34 19.73-8.34h584.62q11.77 0 19.73 8.34 7.96 8.33 7.96 19.35v143.08q0 11.02-7.96 19.35-7.96 8.34-19.73 8.34H187.69Zm0-229.23q-11.77 0-19.73-7.96-7.96-7.96-7.96-19.73v-134.62q0-11.77 7.96-19.73 7.96-7.96 19.73-7.96h584.62q11.77 0 19.73 7.96 7.96 7.96 7.96 19.73v134.62q0 11.77-7.96 19.73-7.96 7.96-19.73 7.96H187.69Z"/></svg>
